X: 3938
T: Blackbird, The
R: slide
M: 12/8
K: Amajor
|:A|A2 A A2 a a3 e2 =g|f2 e d2 c d3- d2 c|
d2 d B2 d c2 A AB/c/d|e2 A GA/B/c B3- B2:|
|:c/d/|e2 c A2 c B2 G E2 G|A2 c e2 d c3- c2 c|
d2 e f2 a e2 c A2 a|f2 d B2 G A3- A2:|

